Papirus/24x24/apps/touhou-dream-logical-world.svg

<svg xmlns="http://www.w3.org/2000/svg" width="24" height="24" version="1.1">
 <g transform="translate(1,1)">
  <path style="opacity:0.2" d="M 2.875,1.5 C 1.846975,1.5 1,2.3469746 1,3.375 v 16.25 C 1,20.653025 1.846975,21.5 2.875,21.5 h 16.25 C 20.153025,21.5 21,20.653025 21,19.625 V 3.375 C 21,2.3469746 20.153025,1.5 19.125,1.5 Z M 2.6646371,2.5234554 H 19.335363 c 0.366216,0 0.641182,0.2749661 0.641182,0.6411817 V 19.835363 c 0,0.366216 -0.274966,0.641182 -0.641182,0.641182 H 2.6646371 c -0.366216,0 -0.6411817,-0.274966 -0.6411817,-0.641182 V 3.1646371 c 0,-0.3662156 0.2749657,-0.6411817 0.6411817,-0.6411817 z"/>
  <path style="fill:#d35cc6" d="M 2.875,1 C 1.846975,1 1,1.8469746 1,2.875 v 16.25 C 1,20.153025 1.846975,21 2.875,21 h 16.25 C 20.153025,21 21,20.153025 21,19.125 V 2.875 C 21,1.8469746 20.153025,1 19.125,1 Z M 2.6646371,2.0234554 H 19.335363 c 0.366216,0 0.641182,0.2749661 0.641182,0.6411817 V 19.335363 c 0,0.366216 -0.274966,0.641182 -0.641182,0.641182 H 2.6646371 c -0.366216,0 -0.6411817,-0.274966 -0.6411817,-0.641182 V 2.6646371 c 0,-0.3662156 0.2749657,-0.6411817 0.6411817,-0.6411817 z"/>
  <path style="opacity:0.1;fill:#ffffff" d="M 2.875,1 C 1.846976,1 1,1.8469756 1,2.875 v 0.5 C 1,2.3469756 1.846976,1.5 2.875,1.5 h 16.25 C 20.153024,1.5 21,2.3469756 21,3.375 v -0.5 C 21,1.8469756 20.153024,1 19.125,1 Z M 2.0234375,19.335938 v 0.5 c 0,0.366215 0.2744094,0.640624 0.640625,0.640624 H 19.335938 c 0.366215,0 0.640624,-0.274409 0.640624,-0.640624 v -0.5 c 0,0.366215 -0.274409,0.640624 -0.640624,0.640624 H 2.6640625 c -0.3662156,0 -0.640625,-0.274409 -0.640625,-0.640624 z"/>
 </g>
 <g transform="translate(1,1)">
  <path style="opacity:0.2" d="M 14.772279,8.7817599 13.455203,5.4900147 A 0.51542604,0.53113871 0 0 1 13.889578,4.7581929 L 15.912212,4.5872304 A 0.09560627,0.09852082 0 0 0 15.96785,4.4153456 L 15.104625,3.6260622 A 4.1069984,4.2321996 0 0 0 12.523465,2.5621807 L 10.858684,2.5017252 A 2.6987765,2.7810483 0 0 0 8.579865,3.6469799 L 8.549553,3.6899973 A 9.7000289,9.9957329 0 0 0 7.808233,4.920635 L 6.856163,6.7913208 A 7.4836719,7.7118105 0 0 0 6,10.373121 v 0.830649 a 0.28746611,0.29622947 0 0 0 0.3615738,0.286217 L 14.553352,9.2376879 a 0.3283702,0.33838051 0 0 0 0.218927,-0.455928 z"/>
  <path style="fill:#4f4f4f" d="M 14.772279,8.2817599 13.455203,4.9900147 A 0.51542604,0.53113871 0 0 1 13.889578,4.2581929 L 15.912212,4.0872304 A 0.09560627,0.09852082 0 0 0 15.96785,3.9153456 L 15.104625,3.1260622 A 4.1069984,4.2321996 0 0 0 12.523465,2.0621807 L 10.858684,2.0017252 A 2.6987765,2.7810483 0 0 0 8.579865,3.1469799 L 8.549553,3.1899973 A 9.7000289,9.9957329 0 0 0 7.808233,4.420635 L 6.856163,6.2913208 A 7.4836719,7.7118105 0 0 0 6,9.873121 v 0.830649 a 0.28746611,0.29622947 0 0 0 0.3615738,0.286217 L 14.553352,8.7376879 a 0.3283702,0.33838051 0 0 0 0.218927,-0.455928 z"/>
  <path style="opacity:0.1;fill:#ffffff" d="M 10.859375,2.0019531 A 2.6987765,2.7810483 0 0 0 8.5800781,3.1464844 l -0.03125,0.042969 A 9.7000289,9.9957329 0 0 0 7.8085938,4.4199219 L 6.8554688,6.2910156 A 7.4836719,7.7118105 0 0 0 6,9.8730469 V 10.373047 A 7.4836719,7.7118105 0 0 1 6.8554688,6.7910156 L 7.8085938,4.9199219 A 9.7000289,9.9957329 0 0 1 8.5488281,3.6894531 l 0.03125,-0.042969 A 2.6987765,2.7810483 0 0 1 10.859375,2.5019531 L 12.523438,2.5625 a 4.1069984,4.2321996 0 0 1 2.582031,1.0644531 l 0.529297,0.484375 0.277343,-0.023437 a 0.09560627,0.09852082 0 0 0 0.05664,-0.171875 l -0.86328,-0.789063 A 4.1069984,4.2321996 0 0 0 12.523438,2.0625 Z m 2.619141,3.0488281 a 0.51542604,0.53113871 0 0 0 -0.02344,0.4394532 l 1.257813,3.1464844 A 0.3283702,0.33838051 0 0 0 14.771484,8.28125 Z"/>
 </g>
 <g transform="translate(1,1)">
  <path style="fill:#e4e4e4" d="M 5.0034842,4.9424786 5.3583711,8.3031989 A 0.76271637,0.78069706 0 0 0 6.4158512,8.937432 L 9.44261,7.6162953 a 3.0573063,3.1293809 0 0 1 0.700008,-0.2087975 l 1.16172,-0.1968156 A 21.702792,22.214425 0 0 1 12.030667,7.1005159 L 15.806365,6.5944902 A 0.22252388,0.22776979 0 0 0 15.959701,6.2379223 L 14.533448,4.154962 A 0.35533139,0.36370817 0 0 0 14.029097,4.072874 L 11.430518,6.070281 A 0.58313865,0.59688589 0 0 1 11.184321,6.1803128 L 10.556002,6.2968453 A 0.74253553,0.76004047 0 0 1 10.124016,6.2444123 L 5.8444477,4.3127849 A 0.60168223,0.61586661 0 0 0 5.0034842,4.9424786 Z"/>
  <path style="opacity:0.2;fill:#ffffff" d="m 14.298828,4.0039062 a 0.35533139,0.36370817 0 0 0 -0.269531,0.068359 l -2.599609,1.9980469 a 0.58313865,0.59688589 0 0 1 -0.246094,0.109375 L 10.556641,6.296875 A 0.74253553,0.76004047 0 0 1 10.123047,6.2441406 L 5.84375,4.3125 A 0.60168223,0.61586661 0 0 0 5.0039062,4.9433594 L 5.03125,5.1972656 A 0.60168223,0.61586661 0 0 1 5.84375,4.8125 l 4.279297,1.9316406 a 0.74253553,0.76004047 0 0 0 0.433594,0.052734 l 0.626953,-0.1171875 a 0.58313865,0.59688589 0 0 0 0.246094,-0.109375 l 2.599609,-1.9980469 a 0.35533139,0.36370817 0 0 1 0.503906,0.082031 l 1.318359,1.9277343 a 0.22252388,0.22776979 0 0 0 0.107422,-0.34375 L 14.533203,4.1542969 A 0.35533139,0.36370817 0 0 0 14.298828,4.0039062 Z"/>
 </g>
 <g transform="translate(1,1)">
  <ellipse style="opacity:0.2" cx="7.264" cy="13.717" rx="9.332" ry="3.763" transform="matrix(0.95703499,-0.28997247,0.2950912,0.95546909,0,0)"/>
  <ellipse style="fill:#4f4f4f" cx="7.412" cy="13.239" rx="9.332" ry="3.763" transform="matrix(0.95703499,-0.28997247,0.2950912,0.95546909,0,0)"/>
  <path style="opacity:0.1;fill:#ffffff" transform="matrix(0.95703499,-0.28997247,0.2950912,0.95546909,0,0)" d="M 13.09353,10.253354 A 9.3321915,3.7630029 0 0 0 7.4110292,9.475232 9.3321915,3.7630029 0 0 0 -1.8846304,13.015524 9.3321924,3.7630029 1.5222233e-6 0 1 7.2634815,9.9537564 9.3321924,3.7630029 1.5222233e-6 0 1 16.597122,13.716485 9.3321924,3.7630029 1.5222233e-6 0 1 16.5607,13.940509 9.3321915,3.7630029 0 0 0 16.74467,13.23796 9.3321915,3.7630029 0 0 0 13.09353,10.253354 Z"/>
 </g>
 <g transform="translate(1,1)">
  <path style="opacity:0.2" d="m 6.6731161,11.664936 0.09207,2.26407 a 2.4872689,2.6160953 0 0 1 -0.6800182,1.911729 l -1.0379222,1.151443 a 0.17223396,0.18115471 0 0 0 0.1135445,0.305393 l 2.8070879,0.196663 a 2.479278,2.6076905 0 0 0 1.716681,-0.568279 l 0.071378,-0.06027 a 3.3337738,3.5064443 0 0 1 1.5773229,-0.73071 l 1.038896,-0.168967 a 1.6629305,1.7490609 0 0 1 1.156207,0.259174 l 0.928512,0.630628 a 0.4161064,0.43765836 0 0 0 0.544015,-0.08577 3.8403133,4.0392197 0 0 0 0.885012,-2.423047 l 0.09311,-2.144507 A 20.150205,21.193871 0 0 0 15.933162,9.510719 L 15.890593,8.9623606 A 0.40989179,0.43112185 0 0 0 15.494391,8.5665199 L 13.552594,8.505064 A 10.642236,11.193443 0 0 0 10.378888,8.9099084 L 8.7297545,9.392693 C 8.2358569,9.537281 7.4709804,9.869196 7.0626323,10.195117 6.7826015,10.418623 6.6512089,11.126203 6.6731161,11.664936 Z"/>
  <path style="fill:#ffe300" d="m 6.6731161,11.164936 0.09207,2.26407 a 2.4872689,2.6160953 0 0 1 -0.6800182,1.911729 l -1.0379222,1.151443 a 0.17223396,0.18115471 0 0 0 0.1135445,0.305393 l 2.8070879,0.196663 a 2.479278,2.6076905 0 0 0 1.716681,-0.568279 l 0.071378,-0.06027 a 3.3337738,3.5064443 0 0 1 1.5773229,-0.73071 l 1.038896,-0.168967 a 1.6629305,1.7490609 0 0 1 1.156207,0.259174 l 0.928512,0.630628 a 0.4161064,0.43765836 0 0 0 0.544015,-0.08577 3.8403133,4.0392197 0 0 0 0.885012,-2.423047 l 0.09311,-2.144507 A 20.150205,21.193871 0 0 0 15.933162,9.010719 L 15.890593,8.4623606 A 0.40989179,0.43112185 0 0 0 15.494391,8.0665199 L 13.552594,8.005064 A 10.642236,11.193443 0 0 0 10.378888,8.4099084 L 8.7297545,8.892693 C 8.2358569,9.037281 7.4709804,9.369196 7.0626323,9.695117 6.7826015,9.918623 6.6512089,10.626203 6.6731161,11.164936 Z"/>
  <path style="opacity:0.2;fill:#ffffff" d="M 13.552734,8.0058594 A 10.642236,11.193443 0 0 0 10.378906,8.4101562 L 8.7304688,8.8925781 C 8.2365716,9.037166 7.4708477,9.3693918 7.0625,9.6953125 6.7824695,9.9188183 6.6519209,10.62533 6.6738281,11.164062 l 0.00586,0.160157 C 6.7113861,10.860904 6.8389114,10.373769 7.0625,10.195312 7.4708477,9.8693918 8.2365716,9.537166 8.7304688,9.3925781 L 10.378906,8.9101562 a 10.642236,11.193443 0 0 1 3.173828,-0.4042968 l 1.941407,0.060547 a 0.40989179,0.43112185 0 0 1 0.396484,0.3964844 l 0.04297,0.546875 a 20.150205,21.193871 0 0 1 0.06445,1.4570312 20.150205,21.193871 0 0 0 -0.06445,-1.9570312 l -0.04297,-0.546875 A 0.40989179,0.43112185 0 0 0 15.494141,8.0664062 Z M 6.7578125,13.755859 a 2.4872689,2.6160953 0 0 1 -0.671875,1.583985 L 5.046875,16.492188 a 0.17223396,0.18115471 0 0 0 0.1132812,0.304687 l 0.058594,0.0039 0.8671875,-0.960937 a 2.4872689,2.6160953 0 0 0 0.6796873,-1.91015 z"/>
 </g>
 <path style="opacity:0.2" d="m 7,21.500001 c 0.05064,-0.296661 0.855992,-1.347094 1.626905,-2.298122 0.777842,-0.959576 2.25091,-2.03537 3.266905,-2.436918 l 0.435211,-0.172009 a 1.6913084,2.2557881 0 0 1 0.96704,0.0024 l 0.648409,0.259747 a 3.5823744,4.7780037 0 0 1 2.131597,2.330503 L 17,21.500001 Z"/>
 <path style="fill:#e4e4e4" d="m 7,21.000001 c 0.05064,-0.296661 0.855992,-1.347094 1.626905,-2.298122 0.777842,-0.959576 2.25091,-2.03537 3.266905,-2.436918 l 0.435211,-0.172009 a 1.6913084,2.2557881 0 0 1 0.96704,0.0024 l 0.648409,0.259747 a 3.5823744,4.7780037 0 0 1 2.131597,2.330503 L 17,21.000001 Z"/>
 <path style="opacity:0.2;fill:#ffffff" d="m 12.650391,16.009766 a 1.6913084,2.2557881 0 0 0 -0.322266,0.08398 l -0.433594,0.171875 C 10.878537,16.667173 9.404795,17.741597 8.626953,18.701172 7.856041,19.652199 7.050637,20.703339 7,21 h 0.265625 c 0.308633,-0.47023 0.839495,-1.155074 1.361328,-1.798828 0.777842,-0.959575 2.251584,-2.033999 3.267578,-2.435547 l 0.433594,-0.171875 a 1.6913084,2.2557881 0 0 1 0.96875,0.002 l 0.648437,0.259766 a 3.5823744,4.7780037 0 0 1 2.13086,2.330078 L 16.800781,21 H 17 l -0.923828,-2.314453 a 3.5823744,4.7780037 0 0 0 -2.13086,-2.330078 l -0.648437,-0.259766 a 1.6913084,2.2557881 0 0 0 -0.646484,-0.08594 z"/>
 <path style="opacity:0.2" d="m 10.000289,12.641644 0.02266,1.328536 a 2.228506,2.2285958 0 0 0 0.899908,1.751468 l 0.521318,0.386992 a 2.4935423,2.4936428 0 0 0 2.948815,0.01737 l 0.727573,-0.526928 a 2.1270412,2.127127 0 0 0 0.879362,-1.741164 l -0.01104,-1.272127 A 2.002998,2.0030787 0 0 0 13.96731,10.600087 l -1.996876,0.01865 a 1.989004,1.9890841 0 0 0 -1.970145,2.02291 z"/>
 <path style="fill:#ffeedb" d="m 10.000289,12.041644 0.02266,1.328536 a 2.228506,2.2285958 0 0 0 0.899908,1.751468 l 0.521318,0.386992 a 2.4935423,2.4936428 0 0 0 2.948815,0.01737 l 0.727573,-0.526928 a 2.1270412,2.127127 0 0 0 0.879362,-1.741164 l -0.01104,-1.272127 A 2.002998,2.0030787 0 0 0 13.96731,10.000087 l -1.996876,0.01865 a 1.989004,1.9890841 0 0 0 -1.970145,2.02291 z"/>
 <path style="opacity:0.2;fill:#ffffff" d="m 13.966797,10 -1.996094,0.01953 A 1.989004,1.9890841 0 0 0 10,12.041016 l 0.0078,0.402343 a 1.989004,1.9890841 0 0 1 1.962893,-1.923828 L 13.966787,10.5 a 2.002998,2.0030787 0 0 1 2.021484,1.986328 l 0.0078,0.898438 a 2.1270412,2.127127 0 0 0 0.0039,-0.126954 l -0.01172,-1.271484 A 2.002998,2.0030787 0 0 0 13.966768,10 Z"/>
</svg>

<svg xmlns="http://www.w3.org/2000/svg" width="24" height="24" version="1.1">
 <g transform="translate(1,1)">
  <path style="opacity:0.2" d="M 2.875,1.5 C 1.847,1.5 1,2.347 1,3.375 V 19.625 C 1,20.653 1.847,21.5 2.875,21.5 H 19.125 C 20.153,21.5 21,20.653 21,19.625 V 3.375 C 21,2.347 20.153,1.5 19.125,1.5 Z M 2.6646,2.5235 H 19.335 C 19.702,2.5235 19.977,2.7984 19.977,3.1646 V 19.835 C 19.977,20.202 19.702,20.477 19.335,20.477 H 2.6646 C 2.2984,20.477 2.0235,20.202 2.0235,19.835 V 3.1646 C 2.0235,2.7984 2.2984,2.5235 2.6646,2.5235 Z"/>
  <path style="fill:#d35cc6" d="M 2.875,1 C 1.847,1 1,1.847 1,2.875 V 19.125 C 1,20.153 1.847,21 2.875,21 H 19.125 C 20.153,21 21,20.153 21,19.125 V 2.875 C 21,1.847 20.153,1 19.125,1 Z M 2.6646,2.0235 H 19.335 C 19.702,2.0235 19.977,2.2984 19.977,2.6646 V 19.335 C 19.977,19.702 19.702,19.977 19.335,19.977 H 2.6646 C 2.2984,19.977 2.0235,19.702 2.0235,19.335 V 2.6646 C 2.0235,2.2984 2.2984,2.0235 2.6646,2.0235 Z"/>
  <path style="opacity:0.1;fill:#ffffff" d="M 2.875,1 C 1.847,1 1,1.847 1,2.875 V 3.375 C 1,2.347 1.847,1.5 2.875,1.5 H 19.125 C 20.153,1.5 21,2.347 21,3.375 V 2.875 C 21,1.847 20.153,1 19.125,1 Z M 2.0234,19.336 V 19.836 C 2.0234,20.202 2.2978,20.477 2.6641,20.477 H 19.336 C 19.702,20.477 19.977,20.202 19.977,19.836 V 19.336 C 19.977,19.702 19.702,19.977 19.336,19.977 H 2.6641 C 2.2978,19.977 2.0234,19.702 2.0234,19.336 Z"/>
  <path style="opacity:0.2" d="M 14.772,8.7818 13.455,5.49 A 0.51543,0.53114 0 0 1 13.89,4.7582 L 15.912,4.5872 A 0.09561,0.09852 0 0 0 15.968,4.4153 L 15.105,3.6261 A 4.107,4.2322 0 0 0 12.523,2.5622 L 10.859,2.5017 A 2.6988,2.781 0 0 0 8.5799,3.647 L 8.5496,3.69 A 9.7,9.9957 0 0 0 7.8082,4.9206 L 6.8562,6.7913 A 7.4837,7.7118 0 0 0 6,10.373 V 11.204 A 0.28747,0.29623 0 0 0 6.3616,11.49 L 14.553,9.2377 A 0.32837,0.33838 0 0 0 14.772,8.7818 Z"/>
  <path style="fill:#4f4f4f" d="M 14.772,8.2818 13.455,4.99 A 0.51543,0.53114 0 0 1 13.89,4.2582 L 15.912,4.0872 A 0.09561,0.09852 0 0 0 15.968,3.9153 L 15.105,3.1261 A 4.107,4.2322 0 0 0 12.523,2.0622 L 10.859,2.0017 A 2.6988,2.781 0 0 0 8.5799,3.147 L 8.5496,3.19 A 9.7,9.9957 0 0 0 7.8082,4.4206 L 6.8562,6.2913 A 7.4837,7.7118 0 0 0 6,9.8731 V 10.704 A 0.28747,0.29623 0 0 0 6.3616,10.99 L 14.553,8.7377 A 0.32837,0.33838 0 0 0 14.772,8.2818 Z"/>
  <path style="opacity:0.1;fill:#ffffff" d="M 10.859,2.002 C 9.9622,1.969 9.1078,2.398 8.5801,3.1465 L 8.5488,3.1895 C 8.2735,3.5806 8.0262,3.9919 7.8086,4.4199 L 6.8555,6.291 C 6.2933,7.3961 5.9997,8.6253 6,9.873 V 10.373 C 5.9997,9.1253 6.2933,7.8961 6.8555,6.791 L 7.8086,4.9199 C 8.0262,4.4919 8.2735,4.0806 8.5488,3.6895 L 8.5801,3.6465 C 9.1078,2.898 9.9622,2.469 10.859,2.502 L 12.523,2.5625 C 13.478,2.5971 14.391,2.9735 15.105,3.627 L 15.635,4.1113 15.912,4.0879 C 15.996,4.0816 16.032,3.9739 15.969,3.916 L 15.105,3.127 C 14.391,2.4735 13.478,2.0971 12.523,2.0625 Z"/>
  <path style="fill:#e4e4e4" d="M 5.0035,4.9425 5.3584,8.3032 A 0.76272,0.7807 0 0 0 6.4159,8.9374 L 9.4426,7.6163 A 3.0573,3.1294 0 0 1 10.143,7.4075 L 11.304,7.2107 A 21.703,22.214 0 0 1 12.031,7.1005 L 15.806,6.5945 A 0.22252,0.22777 0 0 0 15.96,6.2379 L 14.533,4.155 A 0.35533,0.36371 0 0 0 14.029,4.0729 L 11.431,6.0703 A 0.58314,0.59689 0 0 1 11.184,6.1803 L 10.556,6.2968 A 0.74254,0.76004 0 0 1 10.124,6.2444 L 5.8444,4.3128 A 0.60168,0.61587 0 0 0 5.0035,4.9425 Z"/>
  <path style="opacity:0.2;fill:#ffffff" d="M 14.299,4.0039 A 0.35533,0.36371 0 0 0 14.029,4.0723 L 11.43,6.0703 A 0.58314,0.59689 0 0 1 11.184,6.1797 L 10.557,6.2969 A 0.74254,0.76004 0 0 1 10.123,6.2441 L 5.8437,4.3125 A 0.60168,0.61587 0 0 0 5.0039,4.9434 L 5.0312,5.1973 A 0.60168,0.61587 0 0 1 5.8437,4.8125 L 10.123,6.7441 A 0.74254,0.76004 0 0 0 10.557,6.7969 L 11.184,6.6797 A 0.58314,0.59689 0 0 0 11.43,6.5703 L 14.029,4.5723 A 0.35533,0.36371 0 0 1 14.533,4.6543 L 15.852,6.582 A 0.22252,0.22777 0 0 0 15.959,6.2383 L 14.533,4.1543 A 0.35533,0.36371 0 0 0 14.299,4.0039 Z"/>
  <g transform="matrix(0.95704,-0.28997,0.29509,0.95547,0,0)">
   <ellipse style="opacity:0.2" cx="7.264" cy="13.717" rx="9.332" ry="3.763"/>
   <ellipse style="fill:#4f4f4f" cx="7.412" cy="13.239" rx="9.332" ry="3.763"/>
  </g>
  <path style="opacity:0.1;fill:#ffffff" d="M 15.557,5.9996 A 3.7629,9.3322 73.203 0 0 9.8886,6.9043 3.7629,9.3322 73.203 0 0 2.0373,12.983 3.7629,9.3322 73.203 0 1 9.8887,7.4044 3.7629,9.3322 73.203 0 1 19.931,8.2926 3.7629,9.3322 73.203 0 1 19.963,8.518 3.7629,9.3322 73.203 0 0 19.932,7.793 3.7629,9.3322 73.203 0 0 15.557,5.9996 Z"/>
  <path style="opacity:0.2" d="M 6.6731,11.665 6.7652,13.929 A 2.4873,2.6161 0 0 1 6.0852,15.841 L 5.0472,16.992 A 0.17223,0.18115 0 0 0 5.1608,17.298 L 7.9679,17.494 A 2.4793,2.6077 0 0 0 9.6846,16.926 L 9.7559,16.866 A 3.3338,3.5064 0 0 1 11.333,16.135 L 12.372,15.966 A 1.6629,1.7491 0 0 1 13.528,16.225 L 14.457,16.856 A 0.41611,0.43766 0 0 0 15.001,16.77 3.8403,4.0392 0 0 0 15.886,14.347 L 15.979,12.202 A 20.15,21.194 0 0 0 15.933,9.5107 L 15.891,8.9624 A 0.40989,0.43112 0 0 0 15.494,8.5665 L 13.553,8.5051 A 10.642,11.193 0 0 0 10.379,8.9099 L 8.7298,9.3927 C 8.2359,9.5373 7.471,9.8692 7.0626,10.195 6.7826,10.419 6.6512,11.126 6.6731,11.665 Z"/>
  <path style="fill:#ffe300" d="M 6.6731,11.165 6.7652,13.429 A 2.4873,2.6161 0 0 1 6.0852,15.341 L 5.0472,16.492 A 0.17223,0.18115 0 0 0 5.1608,16.798 L 7.9679,16.994 A 2.4793,2.6077 0 0 0 9.6846,16.426 L 9.7559,16.366 A 3.3338,3.5064 0 0 1 11.333,15.635 L 12.372,15.466 A 1.6629,1.7491 0 0 1 13.528,15.725 L 14.457,16.356 A 0.41611,0.43766 0 0 0 15.001,16.27 3.8403,4.0392 0 0 0 15.886,13.847 L 15.979,11.702 A 20.15,21.194 0 0 0 15.933,9.0107 L 15.891,8.4624 A 0.40989,0.43112 0 0 0 15.494,8.0665 L 13.553,8.0051 A 10.642,11.193 0 0 0 10.379,8.4099 L 8.7298,8.8927 C 8.2359,9.0373 7.471,9.3692 7.0626,9.6951 6.7826,9.9186 6.6512,10.626 6.6731,11.165 Z"/>
  <path style="opacity:0.2;fill:#ffffff" d="M 13.553,8.0059 A 10.642,11.193 0 0 0 10.379,8.4102 L 8.7305,8.8926 C 8.2366,9.0372 7.4708,9.3694 7.0625,9.6953 6.7825,9.9188 6.6519,10.625 6.6738,11.164 L 6.6797,11.324 C 6.7114,10.861 6.8389,10.374 7.0625,10.195 7.4708,9.8694 8.2366,9.5372 8.7305,9.3926 L 10.379,8.9102 A 10.642,11.193 0 0 1 13.553,8.5059 L 15.494,8.5664 A 0.40989,0.43112 0 0 1 15.891,8.9629 L 15.934,9.5098 A 20.15,21.194 0 0 1 15.998,10.967 20.15,21.194 0 0 0 15.934,9.0098 L 15.891,8.4629 A 0.40989,0.43112 0 0 0 15.494,8.0664 Z M 6.7578,13.756 A 2.4873,2.6161 0 0 1 6.0859,15.34 L 5.0469,16.492 A 0.17223,0.18115 0 0 0 5.1602,16.797 L 5.2188,16.801 6.0859,15.84 A 2.4873,2.6161 0 0 0 6.7656,13.93 Z"/>
 </g>
 <path style="opacity:0.2" d="m 7,21.500001 c 0.05064,-0.296661 0.855992,-1.347094 1.626905,-2.298122 0.777842,-0.959576 2.25091,-2.03537 3.266905,-2.436918 l 0.435211,-0.172009 a 1.6913084,2.2557881 0 0 1 0.96704,0.0024 l 0.648409,0.259747 a 3.5823744,4.7780037 0 0 1 2.131597,2.330503 L 17,21.500001 Z"/>
 <path style="fill:#e4e4e4" d="m 7,21.000001 c 0.05064,-0.296661 0.855992,-1.347094 1.626905,-2.298122 0.777842,-0.959576 2.25091,-2.03537 3.266905,-2.436918 l 0.435211,-0.172009 a 1.6913084,2.2557881 0 0 1 0.96704,0.0024 l 0.648409,0.259747 a 3.5823744,4.7780037 0 0 1 2.131597,2.330503 L 17,21.000001 Z"/>
 <path style="opacity:0.2;fill:#ffffff" d="m 12.650391,16.009766 a 1.6913084,2.2557881 0 0 0 -0.322266,0.08398 l -0.433594,0.171875 C 10.878537,16.667173 9.404795,17.741597 8.626953,18.701172 7.856041,19.652199 7.050637,20.703339 7,21 h 0.265625 c 0.308633,-0.47023 0.839495,-1.155074 1.361328,-1.798828 0.777842,-0.959575 2.251584,-2.033999 3.267578,-2.435547 l 0.433594,-0.171875 a 1.6913084,2.2557881 0 0 1 0.96875,0.002 l 0.648437,0.259766 a 3.5823744,4.7780037 0 0 1 2.13086,2.330078 L 16.800781,21 H 17 l -0.923828,-2.314453 a 3.5823744,4.7780037 0 0 0 -2.13086,-2.330078 l -0.648437,-0.259766 a 1.6913084,2.2557881 0 0 0 -0.646484,-0.08594 z"/>
 <path style="opacity:0.2" d="m 10.000289,12.641644 0.02266,1.328536 a 2.228506,2.2285958 0 0 0 0.899908,1.751468 l 0.521318,0.386992 a 2.4935423,2.4936428 0 0 0 2.948815,0.01737 l 0.727573,-0.526928 a 2.1270412,2.127127 0 0 0 0.879362,-1.741164 l -0.01104,-1.272127 A 2.002998,2.0030787 0 0 0 13.96731,10.600087 l -1.996876,0.01865 a 1.989004,1.9890841 0 0 0 -1.970145,2.02291 z"/>
 <path style="fill:#ffeedb" d="m 10.000289,12.041644 0.02266,1.328536 a 2.228506,2.2285958 0 0 0 0.899908,1.751468 l 0.521318,0.386992 a 2.4935423,2.4936428 0 0 0 2.948815,0.01737 l 0.727573,-0.526928 a 2.1270412,2.127127 0 0 0 0.879362,-1.741164 l -0.01104,-1.272127 A 2.002998,2.0030787 0 0 0 13.96731,10.000087 l -1.996876,0.01865 a 1.989004,1.9890841 0 0 0 -1.970145,2.02291 z"/>
</svg>
